packages/ffe-icons/icons/filled/sm/screenshot_keyboard.svg

<svg xmlns="http://www.w3.org/2000/svg" height="20" viewBox="0 -960 960 960" width="20"><path d="M480-346.001q56.154 0 95.076-38.923 38.923-38.922 38.923-95.076 0-56.154-38.923-95.076-38.922-38.923-95.076-38.923-56.154 0-95.076 38.923-38.923 38.922-38.923 95.076 0 56.154 38.923 95.076 38.922 38.923 95.076 38.923Zm-299.691 134q-27.008 0-45.658-18.662-18.65-18.662-18.65-45.686v-407.626q0-27.024 18.65-45.524t45.658-18.5h599.382q27.008 0 45.658 18.662 18.65 18.662 18.65 45.686v407.626q0 27.024-18.65 45.524t-45.658 18.5H180.309Z"/></svg>

<svg xmlns="http://www.w3.org/2000/svg" height="20" viewBox="0 -960 960 960" width="20"><path d="M480-346q56.15 0 95.08-38.92Q614-423.85 614-480t-38.92-95.08Q536.15-614 480-614t-95.08 38.92Q346-536.15 346-480t38.92 95.08Q423.85-346 480-346ZM180.31-212q-27.01 0-45.66-18.66Q116-249.32 116-276.35v-407.62q0-27.03 18.65-45.53t45.66-18.5h599.38q27.01 0 45.66 18.66Q844-710.68 844-683.65v407.62q0 27.03-18.65 45.53T779.69-212H180.31Z"/></svg>
